X: 195
M: 6/4
L: 1/4
K: Dm
e |\
fed agf | efd ^c2e | fed agf | efd ^c2d |\
eAe fef | gcg aga | bag c'ef | gg2 f2 :|
|: c |\
fAA =BdG | g=BB ^c2e | aAB AGF | Ed^c D2 :|

